X: 1
T: Moran's Return
M:4/4
L:1/8
C:Traditional
S:"Lead The Knave," Nollaig Casey & Arty McGlynn
R:Air
K:F
Ac |: d2 G2 G2 cB | A2 F2 F2 fg | a-a/2 g/2 fe fd cA | G2 GA B2 Bc |
d2 G2 G2 cB | A2 F2 F2 fg | a-a/2 g/2 fe fd cA |1 G2 F2 F2 A/2B/2 c:|2 G
2 F2 F2 AG|
|: F2 fe f3 g | ag fe d2 cA | d2 g2 g3 a/2 |ba gf g2 fg |
 a2 ba g2 ag | fg fd c2 fg | a-a/2 g/2 fe fd cA|1 G2 F2 F2 AG :|2 G2 F2
F2 ||
